images/circle-plus.svg

<svg width="20" height="20" viewBox="0 0 20 20" fill="none" xmlns="http://www.w3.org/2000/svg">
<g clip-path="url(#clip0_33751_2910)">
<path d="M13.1875 9.28125H10.6875V6.8125C10.6875 6.4375 10.375 6.125 9.96875 6.125C9.59375 6.125 9.28125 6.4375 9.28125 6.84375V9.3125H6.8125C6.4375 9.3125 6.125 9.625 6.125 10.0312C6.125 10.4062 6.4375 10.7187 6.84375 10.7187H9.3125V13.1875C9.3125 13.5625 9.625 13.875 10.0312 13.875C10.4062 13.875 10.7187 13.5625 10.7187 13.1562V10.6875H13.1875C13.5625 10.6875 13.875 10.375 13.875 9.96875C13.875 9.59375 13.5625 9.28125 13.1875 9.28125Z" fill="#4C4C4C"/>
<path d="M10 0.5625C4.78125 0.5625 0.5625 4.78125 0.5625 10C0.5625 15.2188 4.8125 19.4688 10.0312 19.4688C15.25 19.4688 19.5 15.2188 19.5 10C19.4688 4.78125 15.2188 0.5625 10 0.5625ZM10 18.0625C5.5625 18.0625 1.96875 14.4375 1.96875 10C1.96875 5.5625 5.5625 1.96875 10 1.96875C14.4375 1.96875 18.0625 5.5625 18.0625 10C18.0625 14.4375 14.4375 18.0625 10 18.0625Z" fill="#4C4C4C"/>
</g>
<defs>
<clipPath id="clip0_33751_2910">
<rect width="20" height="20" fill="white"/>
</clipPath>
</defs>
</svg>

<svg xmlns="http://www.w3.org/2000/svg" width="20" height="20" fill="none"><g fill="#4C4C4C" clip-path="url(#a)"><path d="M13.188 9.281h-2.5V6.812a.7.7 0 0 0-.72-.687.7.7 0 0 0-.687.719v2.468H6.812a.7.7 0 0 0-.687.72.7.7 0 0 0 .719.687h2.468v2.469a.7.7 0 0 0 .72.687.7.7 0 0 0 .687-.719v-2.469h2.469a.7.7 0 0 0 .687-.718.694.694 0 0 0-.687-.688"/><path d="M10 .563A9.43 9.43 0 0 0 .563 10c0 5.219 4.25 9.469 9.468 9.469 5.219 0 9.469-4.25 9.469-9.469C19.469 4.781 15.219.563 10 .563m0 17.5c-4.437 0-8.031-3.625-8.031-8.063A8.03 8.03 0 0 1 10 1.969c4.438 0 8.063 3.593 8.063 8.031S14.438 18.063 10 18.063"/></g><defs><clipPath id="a"><path fill="#fff" d="M0 0h20v20H0z"/></clipPath></defs></svg>
